X: 3288
T: Belharbour, The
R: reel
M: 4/4
K: Gmajor
|:B|DGGD G2 (3Bcd|g2 dg egdB|A3 G A2 BA|GBAF GFEA|
DGGD G2 (3Bcd|g2 dg egdB|GA (3Bcd gedc|BGAF G3:|
|:B|dggf gG (3ABc|g2 af gfed|eaag a3 g|ageg ed B2|
dggf gG (3ABc|g2 af gedB|GA (3Bcd gedc|BGAF G3:|

